packages/kaspersky-hexa-ui-icons/src/iconsSVGs/16/Sent.svg

<svg width="16" height="16" viewBox="0 0 16 16" fill="none" xmlns="http://www.w3.org/2000/svg">
<path fill-rule="evenodd" clip-rule="evenodd" d="M14.8945 2.56102C15.2178 1.6558 14.3437 0.781748 13.4385 1.10504L1.79322 5.26408C0.848397 5.60152 0.769557 6.90716 1.66691 7.35583L6.31811 9.68143L8.64371 14.3326C9.09239 15.23 10.398 15.1511 10.7355 14.2063L14.8945 2.56102ZM2.58533 6.3616L13.5561 2.44349L9.63794 13.4142L7.59337 9.32507L11.1755 5.74292C11.4294 5.48908 11.4294 5.07752 11.1755 4.82368C10.9217 4.56984 10.5101 4.56984 10.2563 4.82368L6.67402 8.40595L2.58533 6.3616Z" fill="black"/>
</svg>

<svg xmlns="http://www.w3.org/2000/svg" width="16" height="16" fill="none" viewBox="0 0 16 16"><path fill="#000" fill-rule="evenodd" d="M14.8945 2.561c.3233-.9052-.5508-1.7793-1.456-1.456L1.7932 5.264C.8484 5.6016.7696 6.9073 1.667 7.3559l4.6512 2.3256 2.3256 4.6512c.4487.8974 1.7543.8185 2.0918-.1263zM2.5853 6.3616l10.9708-3.9181-3.9182 10.9707-2.0445-4.0891 3.5821-3.5822a.65.65 0 1 0-.9192-.9192L6.674 8.406z"/></svg>
